fs/arrow_sync_dismiss_24_regular.svg

<svg viewBox="0 0 24 24" fill="none" xmlns="http://www.w3.org/2000/svg" height="1em" width="1em">
  <path d="M16.2736 6.11866C16.0514 5.85581 16.0332 5.46508 16.2506 5.18011C16.5017 4.85075 16.9724 4.78738 17.3017 5.03856C19.4582 6.68321 20.75 9.23526 20.75 12C20.75 16.5903 17.2154 20.355 12.7194 20.7208L13.4697 21.4697L13.5423 21.5538C13.7601 21.8474 13.7359 22.2641 13.4697 22.5303C13.1768 22.8232 12.7019 22.8232 12.409 22.5303L10.409 20.5303L10.3364 20.4462C10.1185 20.1526 10.1427 19.7359 10.409 19.4697L10.7219 19.1568C11.1369 19.2304 11.564 19.2688 12.0001 19.2688C16.0148 19.2688 19.2693 16.0143 19.2693 11.9996C19.2693 9.58212 18.0891 7.44024 16.2736 6.11866ZM13.2788 4.84256C12.8637 4.7689 12.4364 4.73047 12.0001 4.73047C7.98547 4.73047 4.73096 7.98498 4.73096 11.9996C4.73096 14.3142 5.81275 16.3762 7.49832 17.7074C7.71196 17.9788 7.7156 18.3714 7.48669 18.6485C7.22289 18.9679 6.75016 19.0129 6.43081 18.7491C4.43126 17.0974 3.25 14.6445 3.25 12C3.25 7.41008 6.78409 3.6456 11.2796 3.27923L10.5303 2.53033C10.2374 2.23744 10.2374 1.76256 10.5303 1.46967C10.8232 1.17678 11.2981 1.17678 11.591 1.46967L13.591 3.46967C13.8839 3.76256 13.8839 4.23744 13.591 4.53033L13.2788 4.84256ZM9.46967 9.46967C9.76256 9.17678 10.2374 9.17678 10.5303 9.46967L12 10.9393L13.4697 9.46967C13.7626 9.17678 14.2374 9.17678 14.5303 9.46967C14.8232 9.76256 14.8232 10.2374 14.5303 10.5303L13.0607 12L14.5303 13.4697C14.8232 13.7626 14.8232 14.2374 14.5303 14.5303C14.2374 14.8232 13.7626 14.8232 13.4697 14.5303L12 13.0607L10.5303 14.5303C10.2374 14.8232 9.76256 14.8232 9.46967 14.5303C9.17678 14.2374 9.17678 13.7626 9.46967 13.4697L10.9393 12L9.46967 10.5303C9.17678 10.2374 9.17678 9.76256 9.46967 9.46967ZM12 18C15.3137 18 18 15.3137 18 12C18 8.68629 15.3137 6 12 6C8.68629 6 6 8.68629 6 12C6 15.3137 8.68629 18 12 18ZM12 16.5C9.51472 16.5 7.5 14.4853 7.5 12C7.5 9.51472 9.51472 7.5 12 7.5C14.4853 7.5 16.5 9.51472 16.5 12C16.5 14.4853 14.4853 16.5 12 16.5Z" fill="#212121"/>
</svg>

<svg viewBox="0 0 24 24" fill="none" xmlns="http://www.w3.org/2000/svg" height="1em" width="1em">
  <path d="M16.274 6.119a.75.75 0 0 1 1.028-1.08A8.75 8.75 0 0 1 12.72 20.72l.75.749.072.084a.75.75 0 0 1-1.133.976l-2-2-.073-.084a.75.75 0 0 1 .073-.976l.313-.313a7.27 7.27 0 0 0 5.552-13.038Zm-2.995-1.276a7.27 7.27 0 0 0-5.78 12.865.75.75 0 0 1-1.068 1.041A8.75 8.75 0 0 1 11.28 3.28l-.75-.749a.75.75 0 1 1 1.061-1.06l2 2a.75.75 0 0 1 0 1.06l-.312.313ZM9.469 9.47a.75.75 0 0 1 1.061 0L12 10.94l1.47-1.47a.75.75 0 1 1 1.06 1.06L13.06 12l1.47 1.47a.75.75 0 1 1-1.06 1.06L12 13.06l-1.47 1.47a.75.75 0 1 1-1.06-1.06L10.94 12l-1.47-1.47a.75.75 0 0 1 0-1.06ZM12 18a6 6 0 1 0 0-12 6 6 0 0 0 0 12Zm0-1.5a4.5 4.5 0 1 1 0-9 4.5 4.5 0 0 1 0 9Z" fill="#212121"/>
</svg>
